Newaita-dark/.DP/32/youtube-indicator-light-sync3.svg

<svg xmlns="http://www.w3.org/2000/svg" xmlns:xlink="http://www.w3.org/1999/xlink" width="32px" height="32px" viewBox="0 0 32 32" version="1.1">
<g id="surface1">
<path style=" stroke:none;fill-rule:nonzero;fill:rgb(93.333334%,93.333334%,93.333334%);fill-opacity:1;" d="M 22.449219 19.222656 C 22.238281 19.222656 22.027344 19.304688 21.863281 19.464844 C 21.824219 19.507812 21.785156 19.550781 21.757812 19.597656 C 20.988281 20.421875 20.519531 21.527344 20.519531 22.742188 C 20.519531 23.957031 20.988281 25.058594 21.757812 25.886719 C 21.785156 25.933594 21.824219 25.976562 21.863281 26.015625 C 22.1875 26.339844 22.707031 26.339844 23.035156 26.015625 C 23.355469 25.691406 23.355469 25.167969 23.035156 24.847656 C 22.996094 24.808594 22.949219 24.773438 22.90625 24.742188 C 22.433594 24.214844 22.152344 23.519531 22.152344 22.742188 C 22.152344 21.964844 22.433594 21.265625 22.90625 20.738281 C 22.949219 20.710938 22.996094 20.675781 23.035156 20.636719 C 23.355469 20.3125 23.355469 19.792969 23.035156 19.464844 C 22.871094 19.304688 22.660156 19.222656 22.449219 19.222656 Z M 22.449219 19.222656 "/>
<path style=" stroke:none;fill-rule:nonzero;fill:rgb(93.333334%,93.333334%,93.333334%);fill-opacity:1;" d="M 27.828125 26.257812 C 28.039062 26.257812 28.25 26.175781 28.410156 26.015625 C 28.453125 25.976562 28.488281 25.933594 28.519531 25.886719 C 29.285156 25.058594 29.757812 23.957031 29.757812 22.742188 C 29.757812 21.527344 29.285156 20.421875 28.519531 19.597656 C 28.488281 19.550781 28.453125 19.507812 28.410156 19.464844 C 28.089844 19.144531 27.566406 19.144531 27.242188 19.464844 C 26.917969 19.792969 26.917969 20.3125 27.242188 20.636719 C 27.28125 20.675781 27.324219 20.710938 27.367188 20.738281 C 27.839844 21.265625 28.125 21.964844 28.125 22.742188 C 28.125 23.519531 27.839844 24.214844 27.367188 24.746094 C 27.324219 24.773438 27.28125 24.808594 27.242188 24.847656 C 26.917969 25.167969 26.917969 25.691406 27.242188 26.015625 C 27.402344 26.175781 27.613281 26.257812 27.828125 26.257812 Z M 27.828125 26.257812 "/>
<path style=" stroke:none;fill-rule:nonzero;fill:rgb(93.333334%,93.333334%,93.333334%);fill-opacity:1;" d="M 15.839844 5.816406 C 15.839844 5.816406 7.175781 5.816406 5.011719 6.386719 C 3.847656 6.707031 2.890625 7.664062 2.570312 8.847656 C 2 11.015625 2 15.507812 2 15.507812 C 2 15.507812 2 20.019531 2.570312 22.164062 C 2.890625 23.347656 3.824219 24.285156 5.011719 24.605469 C 7.199219 25.195312 15.839844 25.195312 15.839844 25.195312 C 15.839844 25.195312 17.984375 25.195312 20.410156 25.125 C 20.050781 24.410156 19.847656 23.601562 19.847656 22.742188 C 19.847656 19.808594 22.207031 17.449219 25.136719 17.449219 C 26.945312 17.449219 28.535156 18.347656 29.488281 19.722656 C 29.675781 17.679688 29.675781 15.527344 29.675781 15.527344 C 29.675781 15.527344 29.699219 11.015625 29.105469 8.847656 C 28.789062 7.664062 27.855469 6.730469 26.667969 6.410156 C 24.503906 5.816406 15.839844 5.816406 15.839844 5.816406 Z M 13.195312 10.441406 C 13.207031 10.441406 13.21875 10.441406 13.230469 10.441406 C 13.339844 10.441406 13.449219 10.472656 13.546875 10.53125 L 20.917969 14.886719 C 21.351562 15.144531 21.351562 15.777344 20.917969 16.035156 L 13.546875 20.386719 C 13.101562 20.652344 12.542969 20.332031 12.542969 19.816406 L 12.542969 11.105469 C 12.542969 10.738281 12.832031 10.445312 13.195312 10.441406 Z M 13.195312 10.441406 "/>
</g>
</svg>

<svg xmlns="http://www.w3.org/2000/svg" width="32" height="32"><g fill="#bdbdbd"><path d="M22.45 19.223a.826.826 0 0 0-.692.375 4.594 4.594 0 0 0-1.242 3.144c0 1.211.472 2.317 1.242 3.145a.823.823 0 0 0 1.273.129.823.823 0 0 0 0-1.168.812.812 0 0 0-.125-.106 2.976 2.976 0 0 1-.754-2c0-.777.282-1.476.754-2.004a.823.823 0 0 0 .125-1.27.81.81 0 0 0-.582-.245zm0 0M27.828 26.258c.211 0 .422-.078.582-.242a.684.684 0 0 0 .11-.13 4.61 4.61 0 0 0 0-6.29.684.684 0 0 0-.11-.127.823.823 0 0 0-1.168 0 .823.823 0 0 0 .125 1.27c.473.527.758 1.226.758 2.003a2.98 2.98 0 0 1-.758 2 1.052 1.052 0 0 0-.125.106.823.823 0 0 0 0 1.168.822.822 0 0 0 .586.242zm0 0"/><path d="M15.84 5.816s-8.664 0-10.832.57A3.545 3.545 0 0 0 2.57 8.853C2 11.016 2 15.508 2 15.508s0 4.512.57 6.656a3.466 3.466 0 0 0 2.438 2.438c2.191.593 10.832.593 10.832.593s2.144 0 4.57-.07a5.24 5.24 0 0 1-.566-2.383 5.282 5.282 0 0 1 5.293-5.293c1.808 0 3.398.899 4.351 2.27.188-2.04.188-4.188.188-4.188s.023-4.515-.57-6.68a3.465 3.465 0 0 0-2.438-2.44C24.5 5.815 15.84 5.815 15.84 5.815zm-2.645 4.622h.035c.114.003.22.039.317.093l7.367 4.356a.667.667 0 0 1 0 1.148l-7.367 4.352a.663.663 0 0 1-1.004-.575v-8.707a.67.67 0 0 1 .652-.668zm0 0"/></g></svg>
